dist/img/svg/property__item-icon--14.svg

<svg width="48" height="48" viewBox="0 0 48 48" fill="none" xmlns="http://www.w3.org/2000/svg">
<circle cx="24" cy="24" r="24" fill="#1F2120"/>
<path d="M21.707 14.293L20.293 15.707L23 18.4141V22.1953L19.793 20.1895L18.9355 16.459L16.9863 16.9082L17.7148 20.0684L14.5547 20.7969L15.0039 22.7461L18.7324 21.8867L22.1133 24L18.7324 26.1133L15.0039 25.2539L14.5547 27.2031L17.7148 27.9316L16.9863 31.0918L18.9355 31.541L19.793 27.8105L23 25.8066V29.5859L20.293 32.293L21.707 33.707L24 31.4141L26.293 33.707L27.707 32.293L25 29.5859V25.8066L28.207 27.8105L29.0645 31.541L31.0137 31.0918L30.2852 27.9316L33.4453 27.2031L32.9961 25.2539L29.2676 26.1133L25.8867 24L29.2676 21.8867L32.9961 22.7461L33.4453 20.7969L30.2852 20.0684L31.0137 16.9082L29.0645 16.459L28.207 20.1895L25 22.1953V18.4141L27.707 15.707L26.293 14.293L24 16.5859L21.707 14.293Z" fill="white"/>
</svg>

<svg width="48" height="48" viewBox="0 0 48 48" fill="none" xmlns="http://www.w3.org/2000/svg"><circle cx="24" cy="24" r="24" fill="#1F2120"/><path d="M21.707 14.293l-1.414 1.414L23 18.414v3.781l-3.207-2.006-.857-3.73-1.95.45.729 3.16-3.16.728.449 1.95 3.728-.86L22.113 24l-3.38 2.113-3.73-.86-.448 1.95 3.16.729-.729 3.16 1.95.449.857-3.73L23 25.806v3.779l-2.707 2.707 1.414 1.414L24 31.414l2.293 2.293 1.414-1.414L25 29.586v-3.78l3.207 2.005.857 3.73 1.95-.45-.729-3.16 3.16-.728-.449-1.95-3.728.86L25.887 24l3.38-2.113 3.73.86.448-1.95-3.16-.729.729-3.16-1.95-.449-.857 3.73L25 22.195v-3.78l2.707-2.708-1.414-1.414L24 16.586l-2.293-2.293z" fill="#fff"/></svg>
